X: 1
T: Hambo efter Bengt Jonsson
R: hambo
S: labelled "[6/95] NY" by Karen Myers
M: 3/4
L: 1/8
K: D
|:\
"D"a>(b a2- a)>(g | Tf>e) (d>A) F>A | d>(e d2- d)>(c | "Em"TB>A) (G>F) (E2 |
"Am"e)>(f e2- e)>(d | Tc>B) A2 c>e | a>(b a)>(g f)>e |1,3 "D"d>(e f<g) a2- :|2,4 "D"d2 d4 :|
|:\
"D"f>(a f<d) B2- | "Em"B>(g e<c) (A2- | "A7"A>B) (c<d) e>c |1,3 "D"d(e f<g) a2 :|2,4 "D"d2 d4 :|
